austria/municipalities/41228.svg

<?xml version="1.0" encoding="UTF-8"?>
<!DOCTYPE svg PUBLIC "-//W3C//DTD SVG 1.1//EN" "http://www.w3.org/Graphics/SVG/1.1/DTD/svg11.dtd">
<svg xmlns="http://www.w3.org/2000/svg" version="1.1" width="166px" height="207px" style="shape-rendering:geometricPrecision; text-rendering:geometricPrecision; image-rendering:optimizeQuality; fill-rule:evenodd; clip-rule:evenodd" xmlns:xlink="http://www.w3.org/1999/xlink">
<g><path style="opacity:1" fill="#000000" d="M -0.5,-0.5 C 54.8333,-0.5 110.167,-0.5 165.5,-0.5C 165.5,43.5 165.5,87.5 165.5,131.5C 158.067,171.269 134.733,196.269 95.5,206.5C 86.8333,206.5 78.1667,206.5 69.5,206.5C 29.8711,196.203 6.53772,170.87 -0.5,130.5C -0.5,86.8333 -0.5,43.1667 -0.5,-0.5 Z"/></g>
<g><path style="opacity:1" fill="#fea700" d="M 3.5,3.5 C 56.1667,3.5 108.833,3.5 161.5,3.5C 161.667,47.5013 161.5,91.5013 161,135.5C 153.006,170.826 131.506,192.993 96.5,202C 55.6122,206.141 26.4455,189.641 9,152.5C 6.44468,146.057 4.77802,139.39 4,132.5C 3.50001,89.5013 3.33334,46.5013 3.5,3.5 Z"/></g>
<g><path style="opacity:1" fill="#000000" d="M 78.5,11.5 C 84.5085,11.1709 89.1751,13.5042 92.5,18.5C 91.086,19.624 89.586,20.624 88,21.5C 87.5002,30.1603 87.3336,38.8269 87.5,47.5C 83.5633,47.7935 79.73,47.4601 76,46.5C 75.6667,38.1667 75.3333,29.8333 75,21.5C 73.414,20.624 71.914,19.624 70.5,18.5C 72.5691,15.4275 75.2358,13.0941 78.5,11.5 Z"/></g>
<g><path style="opacity:1" fill="#000000" d="M 32.5,22.5 C 34.0443,27.1993 36.8776,31.1993 41,34.5C 42.4568,37.366 42.7901,40.366 42,43.5C 39.8307,47.3515 37.6641,51.1848 35.5,55C 38.5568,57.7226 41.8901,60.056 45.5,62C 50.0809,65.4384 51.5809,69.9384 50,75.5C 48.199,78.6466 46.3657,81.8132 44.5,85C 52.8945,92.1968 62.5612,96.6968 73.5,98.5C 73.8323,86.4815 73.499,74.4815 72.5,62.5C 68.5569,60.4777 64.3902,59.1444 60,58.5C 58.9412,58.6301 58.1079,59.1301 57.5,60C 58.2567,61.5122 59.2567,62.8455 60.5,64C 58.1527,64.3336 55.8194,64.167 53.5,63.5C 53.3573,61.7376 53.6906,60.0709 54.5,58.5C 51.8159,58.0245 49.4825,57.0245 47.5,55.5C 49.0225,53.7175 51.0225,53.0508 53.5,53.5C 53.0931,47.8346 55.4264,46.0013 60.5,48C 56.2123,50.5435 56.5457,52.0435 61.5,52.5C 65.0743,52.0307 68.4076,50.8641 71.5,49C 78.1667,48.3333 84.8333,48.3333 91.5,49C 95.8942,52.2586 100.561,52.9252 105.5,51C 104.5,50 103.5,49 102.5,48C 104.612,46.5553 106.778,46.7219 109,48.5C 109.494,50.1341 109.66,51.8008 109.5,53.5C 111.977,53.0508 113.977,53.7175 115.5,55.5C 115.291,56.086 114.957,56.586 114.5,57C 112.5,57.3333 110.5,57.6667 108.5,58C 109.98,63.1884 107.98,65.1884 102.5,64C 106.204,61.864 106.204,60.0306 102.5,58.5C 98.3153,59.258 94.3153,60.5913 90.5,62.5C 89.501,74.4815 89.1677,86.4815 89.5,98.5C 100.449,96.6912 110.116,92.1912 118.5,85C 114.633,80.0653 112.799,74.5653 113,68.5C 113.883,65.8976 115.383,63.7309 117.5,62C 120.968,60.0302 124.301,57.8635 127.5,55.5C 125.981,51.4319 123.814,47.7653 121,44.5C 119.243,38.7418 120.909,34.4084 126,31.5C 127.487,28.519 128.821,25.519 130,22.5C 134,26.8333 138,31.1667 142,35.5C 143.658,38.3087 144.825,41.3087 145.5,44.5C 144.953,47.7024 143.953,50.7024 142.5,53.5C 144.439,56.6148 146.606,59.6148 149,62.5C 149.667,65.8333 149.667,69.1667 149,72.5C 145.981,78.7033 142.815,84.8699 139.5,91C 150.051,100.503 152.551,112.003 147,125.5C 138.341,146.491 123.841,161.991 103.5,172C 98.5928,173.614 93.5928,174.781 88.5,175.5C 88.1347,182.425 86.6347,189.091 84,195.5C 82.951,197.107 81.451,197.773 79.5,197.5C 77.427,190.276 75.7604,182.943 74.5,175.5C 60.679,173.394 48.679,167.561 38.5,158C 26.337,146.505 18.1703,132.671 14,116.5C 12.2026,106.243 15.3693,97.7434 23.5,91C 20.5592,85.62 17.7259,80.12 15,74.5C 13.566,70.5935 13.2327,66.5935 14,62.5C 16.128,59.3699 18.628,56.5366 21.5,54C 17.5711,49.6901 16.7378,44.8568 19,39.5C 22.8436,33.3239 27.3436,27.6572 32.5,22.5 Z"/></g>
<g><path style="opacity:1" fill="#e10a15" d="M 130.5,26.5 C 134.786,30.3851 138.619,34.7185 142,39.5C 143.54,53.6749 140.706,54.8416 133.5,43C 130.035,41.926 126.535,41.426 123,41.5C 122.936,37.3061 124.769,33.9727 128.5,31.5C 129.456,29.9246 130.123,28.258 130.5,26.5 Z"/></g>
<g><path style="opacity:1" fill="#e10a15" d="M 31.5,27.5 C 34.0336,30.8847 36.8669,34.218 40,37.5C 40.6667,38.8333 40.6667,40.1667 40,41.5C 36.4653,41.426 32.9653,41.926 29.5,43C 27.697,46.1033 25.5303,48.9367 23,51.5C 19.9987,49.1539 18.9987,46.1539 20,42.5C 22.962,36.7206 26.7954,31.7206 31.5,27.5 Z"/></g>
<g><path style="opacity:1" fill="#e10a15" d="M 32.5,43.5 C 34.1172,44.038 35.7839,44.3713 37.5,44.5C 36.824,48.1867 35.324,51.5201 33,54.5C 29.9483,50.8957 29.7817,47.2291 32.5,43.5 Z"/></g>
<g><path style="opacity:1" fill="#e10a15" d="M 127.5,43.5 C 132.151,44.1742 133.651,46.8408 132,51.5C 131.581,52.6721 130.915,53.6721 130,54.5C 127.799,51.8793 125.965,49.0459 124.5,46C 125.571,45.1482 126.571,44.3149 127.5,43.5 Z"/></g>
<g><path style="opacity:1" fill="#e10a15" d="M 27.5,49.5 C 30.7099,55.4886 35.7099,59.6552 42.5,62C 46.2522,65.0068 48.2522,68.8401 48.5,73.5C 45.0415,73.1191 41.7082,72.6191 38.5,72C 37.4214,72.956 36.2547,73.7894 35,74.5C 32.1575,79.5188 28.8241,84.1855 25,88.5C 23.0657,84.2406 20.7323,80.2406 18,76.5C 14.9185,71.0401 14.9185,65.7067 18,60.5C 21.6372,57.2156 24.8039,53.5489 27.5,49.5 Z"/></g>
<g><path style="opacity:1" fill="#e10a15" d="M 134.5,49.5 C 138.831,52.9981 142.664,56.9981 146,61.5C 147.944,66.5886 147.611,71.5886 145,76.5C 142.667,80.5 140.333,84.5 138,88.5C 134.045,83.4225 130.211,78.2558 126.5,73C 125.271,72.2189 123.938,71.7189 122.5,71.5C 119.978,72.762 117.311,73.4287 114.5,73.5C 114.46,70.5755 115.293,67.9088 117,65.5C 121.696,61.9715 126.529,58.6382 131.5,55.5C 133.577,54.0124 134.577,52.0124 134.5,49.5 Z"/></g>
<g><path style="opacity:1" fill="#fefffe" d="M 75.5,62.5 C 76.8333,62.5 78.1667,62.5 79.5,62.5C 79.6667,104.168 79.5,145.835 79,187.5C 77.9635,184.247 77.2969,180.914 77,177.5C 76.1782,139.17 75.6782,100.837 75.5,62.5 Z"/></g>
<g><path style="opacity:1" fill="#fefffe" d="M 83.5,62.5 C 84.8333,62.5 86.1667,62.5 87.5,62.5C 87.3333,100.504 86.8333,138.504 86,176.5C 85.769,180.584 85.1024,184.584 84,188.5C 83.5,146.501 83.3333,104.501 83.5,62.5 Z"/></g>
<g><path style="opacity:1" fill="#e10a15" d="M 38.5,73.5 C 46.5481,74.3101 48.0481,77.6435 43,83.5C 38.7869,81.1902 37.2869,77.8569 38.5,73.5 Z"/></g>
<g><path style="opacity:1" fill="#e10a15" d="M 121.5,73.5 C 123.595,73.7598 124.928,74.9264 125.5,77C 124.026,79.4737 122.193,81.6404 120,83.5C 119.086,81.3359 117.919,79.3359 116.5,77.5C 118.419,76.3875 120.086,75.0542 121.5,73.5 Z"/></g>
<g><path style="opacity:1" fill="#e10a15" d="M 34.5,78.5 C 43.5796,88.8927 54.9129,96.0594 68.5,100C 70.1341,100.494 71.8008,100.66 73.5,100.5C 74.1527,124.828 74.486,149.161 74.5,173.5C 58.6425,170.988 45.4758,163.655 35,151.5C 26.0707,141.644 19.7373,130.31 16,117.5C 15.3333,113.167 15.3333,108.833 16,104.5C 22.0226,95.658 28.1892,86.9914 34.5,78.5 Z"/></g>
<g><path style="opacity:1" fill="#e10a15" d="M 127.5,78.5 C 134.518,86.3608 141.018,94.6941 147,103.5C 146.79,125.426 138.29,143.593 121.5,158C 112.096,166.573 101.096,171.739 88.5,173.5C 88.8153,149.166 89.1487,124.833 89.5,100.5C 105.197,98.3207 117.864,90.9874 127.5,78.5 Z"/></g>
<g><path style="opacity:1" fill="#fefffe" d="M -0.5,130.5 C 6.53772,170.87 29.8711,196.203 69.5,206.5C 46.1667,206.5 22.8333,206.5 -0.5,206.5C -0.5,181.167 -0.5,155.833 -0.5,130.5 Z"/></g>
<g><path style="opacity:1" fill="#fefffe" d="M 165.5,131.5 C 165.5,156.5 165.5,181.5 165.5,206.5C 142.167,206.5 118.833,206.5 95.5,206.5C 134.733,196.269 158.067,171.269 165.5,131.5 Z"/></g>
</svg>

<svg xmlns="http://www.w3.org/2000/svg" width="166" height="207" style="shape-rendering:geometricPrecision;text-rendering:geometricPrecision;image-rendering:optimizeQuality;fill-rule:evenodd;clip-rule:evenodd"><path style="opacity:1" d="M-.5-.5h166v132c-7.433 39.769-30.767 64.769-70 75h-26c-39.629-10.297-62.962-35.63-70-76V-.5z"/><path style="opacity:1" fill="#fea700" d="M3.5 3.5h158c.167 44.001 0 88.001-.5 132-7.994 35.326-29.494 57.493-64.5 66.5-40.888 4.141-70.055-12.359-87.5-49.5a77.645 77.645 0 0 1-5-20c-.5-42.999-.667-85.999-.5-129z"/><path style="opacity:1" d="M78.5 11.5c6.008-.33 10.675 2.004 14 7a32.367 32.367 0 0 1-4.5 3c-.5 8.66-.666 17.327-.5 26-3.937.294-7.77-.04-11.5-1l-1-25a32.367 32.367 0 0 1-4.5-3c2.07-3.072 4.736-5.406 8-7z"/><path style="opacity:1" d="M32.5 22.5c1.544 4.7 4.378 8.7 8.5 12 1.457 2.866 1.79 5.866 1 9-2.17 3.852-4.336 7.685-6.5 11.5a52.184 52.184 0 0 0 10 7c4.58 3.438 6.08 7.938 4.5 13.5a1120.348 1120.348 0 0 1-5.5 9.5c8.395 7.197 18.061 11.697 29 13.5a324.87 324.87 0 0 0-1-36 39.907 39.907 0 0 0-12.5-4c-1.059.13-1.892.63-2.5 1.5a13.912 13.912 0 0 0 3 4c-2.347.334-4.68.167-7-.5a9.106 9.106 0 0 1 1-5c-2.684-.475-5.017-1.475-7-3 1.523-1.782 3.523-2.45 6-2-.407-5.665 1.926-7.499 7-5.5-4.288 2.544-3.954 4.044 1 4.5a25.632 25.632 0 0 0 10-3.5 100.245 100.245 0 0 1 20 0c4.394 3.259 9.061 3.925 14 2l-3-3c2.112-1.445 4.278-1.278 6.5.5.494 1.634.66 3.3.5 5 2.477-.45 4.477.218 6 2a3.647 3.647 0 0 1-1 1.5l-6 1c1.48 5.188-.52 7.188-6 6 3.704-2.136 3.704-3.97 0-5.5a44.36 44.36 0 0 0-12 4 324.87 324.87 0 0 0-1 36c10.949-1.809 20.616-6.309 29-13.5-3.867-4.935-5.701-10.435-5.5-16.5.883-2.602 2.383-4.77 4.5-6.5a99.559 99.559 0 0 0 10-6.5 36.008 36.008 0 0 0-6.5-11c-1.757-5.758-.091-10.092 5-13a108.958 108.958 0 0 0 4-9l12 13a29.665 29.665 0 0 1 3.5 9c-.547 3.202-1.547 6.202-3 9a81.722 81.722 0 0 0 6.5 9 25.238 25.238 0 0 1 0 10 485.871 485.871 0 0 1-9.5 18.5c10.551 9.503 13.051 21.003 7.5 34.5-8.659 20.991-23.159 36.491-43.5 46.5a86.718 86.718 0 0 1-15 3.5 60.627 60.627 0 0 1-4.5 20c-1.049 1.607-2.549 2.273-4.5 2a201.919 201.919 0 0 1-5-22c-13.821-2.106-25.821-7.939-36-17.5-12.163-11.495-20.33-25.329-24.5-41.5-1.797-10.257 1.37-18.757 9.5-25.5A381.617 381.617 0 0 1 15 74.5c-1.434-3.906-1.767-7.906-1-12a45.24 45.24 0 0 1 7.5-8.5c-3.929-4.31-4.762-9.143-2.5-14.5a94.843 94.843 0 0 1 13.5-17z"/><path style="opacity:1" fill="#e10a15" d="M130.5 26.5a79.196 79.196 0 0 1 11.5 13c1.54 14.175-1.294 15.342-8.5 3.5-3.465-1.074-6.965-1.574-10.5-1.5-.064-4.194 1.769-7.527 5.5-10a16.08 16.08 0 0 0 2-5zM31.5 27.5c2.534 3.385 5.367 6.718 8.5 10 .667 1.333.667 2.667 0 4-3.535-.074-7.035.426-10.5 1.5a42.308 42.308 0 0 1-6.5 8.5c-3.001-2.346-4.001-5.346-3-9 2.962-5.78 6.795-10.78 11.5-15z"/><path style="opacity:1" fill="#e10a15" d="M32.5 43.5c1.617.538 3.284.871 5 1-.676 3.687-2.176 7.02-4.5 10-3.052-3.604-3.218-7.27-.5-11zM127.5 43.5c4.651.674 6.151 3.34 4.5 8a7.292 7.292 0 0 1-2 3 40.406 40.406 0 0 1-5.5-8.5 81.216 81.216 0 0 0 3-2.5z"/><path style="opacity:1" fill="#e10a15" d="M27.5 49.5c3.21 5.989 8.21 10.155 15 12.5 3.752 3.007 5.752 6.84 6 11.5-3.459-.38-6.792-.88-10-1.5a20.473 20.473 0 0 1-3.5 2.5 81.896 81.896 0 0 1-10 14 67.847 67.847 0 0 0-7-12c-3.082-5.46-3.082-10.793 0-16a58.33 58.33 0 0 0 9.5-11zM134.5 49.5a65.437 65.437 0 0 1 11.5 12c1.944 5.089 1.611 10.089-1 15l-7 12A410.939 410.939 0 0 1 126.5 73a10.255 10.255 0 0 0-4-1.5 18.73 18.73 0 0 1-8 2c-.04-2.924.793-5.591 2.5-8a216.702 216.702 0 0 1 14.5-10c2.077-1.488 3.077-3.488 3-6z"/><path style="opacity:1" fill="#fefffe" d="M75.5 62.5h4c.167 41.668 0 83.335-.5 125a45.948 45.948 0 0 1-2-10 6850.39 6850.39 0 0 1-1.5-115zM83.5 62.5h4a6499.436 6499.436 0 0 1-1.5 114 55.774 55.774 0 0 1-2 12c-.5-41.999-.667-83.999-.5-126z"/><path style="opacity:1" fill="#e10a15" d="M38.5 73.5c8.048.81 9.548 4.144 4.5 10-4.213-2.31-5.713-5.643-4.5-10zM121.5 73.5c2.095.26 3.428 1.426 4 3.5a25.736 25.736 0 0 1-5.5 6.5 26.848 26.848 0 0 0-3.5-6c1.919-1.112 3.586-2.446 5-4z"/><path style="opacity:1" fill="#e10a15" d="M34.5 78.5c9.08 10.393 20.413 17.56 34 21.5 1.634.494 3.3.66 5 .5.653 24.328.986 48.661 1 73-15.858-2.512-29.024-9.845-39.5-22-8.93-9.856-15.263-21.19-19-34a42.498 42.498 0 0 1 0-13 774.85 774.85 0 0 1 18.5-26zM127.5 78.5a239.922 239.922 0 0 1 19.5 25c-.21 21.926-8.71 40.093-25.5 54.5-9.404 8.573-20.404 13.739-33 15.5.315-24.334.649-48.667 1-73 15.697-2.18 28.364-9.513 38-22z"/><path style="opacity:1" fill="#fefffe" d="M-.5 130.5c7.038 40.37 30.371 65.703 70 76h-70v-76zM165.5 131.5v75h-70c39.233-10.231 62.567-35.231 70-75z"/></svg>
